X: 36764
T: Shelley And Martin's Wedding March
R: polka
M: 2/4
K: Dmajor
|:f/e/|d>c dA|FD DF|GE ed|c/d/e/c/ A/A/B/c/|
d>c dA|FDDF|G/F/E/D/ Ac|d3:|
a/g/|fd da/g/|fd dA|Bc/d/ Ad|fe ea/g/|
fd da/g/|fd dA|B/c/d/B/ c/d/e/c/|df da/g/|
fd da/g/|fd dA|Bc/d/ Ad|fe ef/e/|
d>c dA|FD DF|G/F/E/D/ Ac|d3||

